html/app/assets/img/ui/icon-included.svg

<svg fill="none" height="40" viewBox="0 0 40 40" width="40" xmlns="http://www.w3.org/2000/svg"><path clip-rule="evenodd" d="m20 3.63636c-9.0374 0-16.36364 7.32624-16.36364 16.36364s7.32624 16.3636 16.36364 16.3636 16.3636-7.3262 16.3636-16.3636-7.3262-16.36364-16.3636-16.36364zm-20 16.36364c0-11.04569 8.95431-20 20-20 11.0457 0 20 8.95431 20 20 0 11.0457-8.9543 20-20 20-11.04569 0-20-8.9543-20-20zm29.4675-6.7402c.71.7101.71 1.8613 0 2.5713l-10.9091 10.9091c-.7101.71-1.8613.71-2.5713 0l-5.4546-5.4546c-.71001-.71-.71001-1.8612 0-2.5712.7101-.7101 1.8613-.7101 2.5713 0l4.1689 4.1688 9.6235-9.6234c.71-.71 1.8612-.71 2.5713 0z" fill="#6de8c1" fill-rule="evenodd"/></svg>

<svg width="40" height="40" viewBox="0 0 40 40" fill="none" xmlns="http://www.w3.org/2000/svg">
<path fill-rule="evenodd" clip-rule="evenodd" d="M20 3.63636C10.9626 3.63636 3.63636 10.9626 3.63636 20C3.63636 29.0374 10.9626 36.3636 20 36.3636C29.0374 36.3636 36.3636 29.0374 36.3636 20C36.3636 10.9626 29.0374 3.63636 20 3.63636ZM0 20C0 8.95431 8.95431 0 20 0C31.0457 0 40 8.95431 40 20C40 31.0457 31.0457 40 20 40C8.95431 40 0 31.0457 0 20ZM29.4675 13.2598C30.1775 13.9699 30.1775 15.1211 29.4675 15.8311L18.5584 26.7402C17.8483 27.4502 16.6971 27.4502 15.9871 26.7402L10.5325 21.2856C9.82249 20.5756 9.82249 19.4244 10.5325 18.7144C11.2426 18.0043 12.3938 18.0043 13.1038 18.7144L17.2727 22.8832L26.8962 13.2598C27.6062 12.5498 28.7574 12.5498 29.4675 13.2598Z" fill="#6DE8C1"/>
</svg>
